packages/icons/raw/imported/SportBoxing.svg

<svg width="32" height="32" viewBox="0 0 32 32" fill="none" xmlns="http://www.w3.org/2000/svg">
<path d="M21.1499 20.301C20.0829 20.301 18.681 21.2901 18.681 22.3665C18.681 23.4429 19.5477 24.3172 20.6147 24.3172H21.5987M12.9673 21.5031L12.9253 24.1519C12.909 25.1757 13.7657 26.0111 14.8205 25.9999L20.1128 25.9438C21.1464 25.9329 21.976 25.112 21.9673 24.1086L21.9332 20.173M11.1918 13.2457C11.1918 12.5752 10.6843 11.961 9.98639 11.8961C9.17975 11.8182 8.5 12.4195 8.5 13.1722V14.9721C8.5 18.7701 11.9441 19.5487 13.8519 20.2754H21.9273C22.172 19.4838 23.5179 15.6339 23.4998 10.322V8.09853M12.7825 15.2489C12.7825 15.2489 14.9214 16.0968 14.9214 20.1846M23.4633 8.3451C22.9512 15.993 11.1689 15.9887 10.6614 8.34078C10.6342 7.96876 10.6761 8.52952 10.6432 7.53563C10.6387 6.68779 11.3592 6 12.2474 6H21.8818C22.77 6 23.486 6.68779 23.486 7.53131C23.486 8.2306 23.4905 7.96444 23.4633 8.3451Z" stroke="black" stroke-miterlimit="10" stroke-linecap="round"/>
</svg>

<svg width="32" height="32" fill="none" xmlns="http://www.w3.org/2000/svg"><path d="M21.15 20.301c-1.067 0-2.469.99-2.469 2.066 0 1.076.867 1.95 1.934 1.95h.984m-8.632-2.814-.042 2.649c-.016 1.024.84 1.86 1.895 1.848l5.293-.056c1.033-.011 1.863-.832 1.854-1.835l-.034-3.936m-10.741-6.927c0-.67-.508-1.285-1.206-1.35-.806-.078-1.486.523-1.486 1.276v1.8c0 3.798 3.444 4.577 5.352 5.303h8.075c.245-.791 1.59-4.641 1.573-9.953V8.099m-10.717 7.15s2.138.848 2.138 4.936m8.542-11.84c-.512 7.648-12.294 7.644-12.802-.004-.027-.372.015.189-.018-.805C10.64 6.688 11.36 6 12.247 6h9.635c.888 0 1.604.688 1.604 1.531 0 .7.005.433-.023.814Z" stroke="#000" stroke-miterlimit="10" stroke-linecap="round"/></svg>
